icons/svg/road_shields/h_us_spur_icon_shield.svg

<?xml version="1.0" encoding="UTF-8" standalone="no"?>
<!-- Generator: Adobe Illustrator 16.0.4, SVG Export Plug-In . SVG Version: 6.00 Build 0)  -->

<svg
   xmlns:dc="http://purl.org/dc/elements/1.1/"
   xmlns:cc="http://creativecommons.org/ns#"
   xmlns:rdf="http://www.w3.org/1999/02/22-rdf-syntax-ns#"
   xmlns:svg="http://www.w3.org/2000/svg"
   xmlns="http://www.w3.org/2000/svg"
   xmlns:sodipodi="http://sodipodi.sourceforge.net/DTD/sodipodi-0.dtd"
   xmlns:inkscape="http://www.inkscape.org/namespaces/inkscape"
   version="1.1"
   id="Слой_1"
   x="0px"
   y="0px"
   width="25"
   height="41"
   viewBox="0 0 25 41"
   enable-background="new 0 0 17.143 17.17"
   xml:space="preserve"
   inkscape:version="0.91 r"
   sodipodi:docname="h_us_spur_icon_shield.svg"><metadata
     id="metadata13"><rdf:RDF><cc:Work
         rdf:about=""><dc:format>image/svg+xml</dc:format><dc:type
           rdf:resource="http://purl.org/dc/dcmitype/StillImage" /><dc:title /></cc:Work></rdf:RDF></metadata><defs
     id="defs11" /><sodipodi:namedview
     pagecolor="#ffffff"
     bordercolor="#666666"
     borderopacity="1"
     objecttolerance="10"
     gridtolerance="10"
     guidetolerance="10"
     inkscape:pageopacity="0"
     inkscape:pageshadow="2"
     inkscape:window-width="1920"
     inkscape:window-height="1004"
     id="namedview9"
     showgrid="false"
     inkscape:zoom="19.43823"
     inkscape:cx="9.2683924"
     inkscape:cy="35.042306"
     inkscape:window-x="1680"
     inkscape:window-y="0"
     inkscape:window-maximized="1"
     inkscape:current-layer="Слой_1"
     showguides="false" /><rect
     style="color:#000000;clip-rule:evenodd;display:inline;overflow:visible;visibility:visible;opacity:1;isolation:auto;mix-blend-mode:normal;color-interpolation:sRGB;color-interpolation-filters:linearRGB;solid-color:#000000;solid-opacity:1;fill:#ffffff;fill-opacity:1;fill-rule:evenodd;stroke:#515151;stroke-width:1.08273661;stroke-linecap:butt;stroke-linejoin:miter;stroke-miterlimit:4;stroke-dasharray:none;stroke-dashoffset:0;stroke-opacity:1;marker:none;color-rendering:auto;image-rendering:auto;shape-rendering:auto;text-rendering:auto;enable-background:accumulate"
     id="rect4135"
     width="19.803215"
     height="7.0026784"
     x="2.598392"
     y="0.56049848"
     ry="0" /><path
     inkscape:connector-curvature="0"
     id="path4145"
     style="font-style:normal;font-variant:normal;font-weight:bold;font-stretch:normal;font-size:medium;line-height:125%;font-family:Sans;-inkscape-font-specification:'Sans Bold';letter-spacing:0px;word-spacing:0px;fill:#515151;fill-opacity:1;stroke:none;stroke-width:1px;stroke-linecap:butt;stroke-linejoin:miter;stroke-opacity:1"
     d="m 7.4799743,2.1827337 0,0.8200197 q -0.3191848,-0.142725 -0.6227997,-0.215385 -0.3036149,-0.07266 -0.5734947,-0.07266 -0.3581099,0 -0.5293798,0.098609 -0.17127,0.098609 -0.17127,0.3062099 0,0.1557 0.1141799,0.2439299 0.116775,0.085635 0.4203899,0.147915 l 0.4255799,0.085634 q 0.6461547,0.12975 0.9186296,0.3944398 0.2724749,0.26469 0.2724749,0.7525499 0,0.6409647 -0.3814649,0.9549596 -0.3788698,0.3113998 -1.1599646,0.3113998 -0.3684897,0 -0.7395746,-0.070065 Q 5.0821953,5.8702274 4.7111105,5.7326923 l 0,-0.8433746 q 0.3710848,0.1972199 0.7162197,0.2984249 0.3477298,0.09861 0.6695097,0.09861 0.3269699,0 0.5008348,-0.10899 0.1738649,-0.10899 0.1738649,-0.3113999 0,-0.18165 -0.11937,-0.2802599 Q 6.5353948,4.4870928 6.1824749,4.4092429 L 5.79582,4.3236079 Q 5.2145403,4.1990479 4.9446603,3.9265731 4.6773755,3.6540981 4.6773755,3.1921883 q 0,-0.5786848 0.3736798,-0.8900846 0.3736799,-0.3113999 1.0743296,-0.3113999 0.3191848,0 0.6565348,0.049305 0.3373499,0.04671 0.6980546,0.1427251 z" /><path
     inkscape:connector-curvature="0"
     id="path4147"
     style="font-style:normal;font-variant:normal;font-weight:bold;font-stretch:normal;font-size:medium;line-height:125%;font-family:Sans;-inkscape-font-specification:'Sans Bold';letter-spacing:0px;word-spacing:0px;fill:#515151;fill-opacity:1;stroke:none;stroke-width:1px;stroke-linecap:butt;stroke-linejoin:miter;stroke-opacity:1"
     d="m 8.613989,2.0607688 1.658204,0 q 0.739575,0 1.134015,0.3295649 0.397035,0.3269698 0.397035,0.9341995 0,0.6098249 -0.397035,0.9393897 -0.39444,0.3269699 -1.134015,0.3269699 l -0.6591294,0 0,1.3442095 -0.9990746,0 0,-3.8743335 z m 0.9990746,0.7240047 0,1.0821145 0.5527344,0 q 0.29064,0 0.448935,-0.1401299 0.158295,-0.1427249 0.158295,-0.4022249 0,-0.2594998 -0.158295,-0.3996297 -0.158295,-0.14013 -0.448935,-0.14013 l -0.5527344,0 z" /><path
     inkscape:connector-curvature="0"
     id="path4149"
     style="font-style:normal;font-variant:normal;font-weight:bold;font-stretch:normal;font-size:medium;line-height:125%;font-family:Sans;-inkscape-font-specification:'Sans Bold';letter-spacing:0px;word-spacing:0px;fill:#515151;fill-opacity:1;stroke:none;stroke-width:1px;stroke-linecap:butt;stroke-linejoin:miter;stroke-opacity:1"
     d="m 12.506487,2.0607688 0.999075,0 0,2.3225241 q 0,0.4800748 0.1557,0.6876747 0.158295,0.2050049 0.513809,0.2050049 0.358111,0 0.513811,-0.2050049 0.158295,-0.2075999 0.158295,-0.6876747 l 0,-2.3225241 0.999074,0 0,2.3225241 q 0,0.8226147 -0.412604,1.2248395 -0.412605,0.4022249 -1.258576,0.4022249 -0.843374,0 -1.255978,-0.4022249 -0.412606,-0.4022248 -0.412606,-1.2248395 l 0,-2.3225241 z" /><path
     inkscape:connector-curvature="0"
     id="path4151"
     style="font-style:normal;font-variant:normal;font-weight:bold;font-stretch:normal;font-size:medium;line-height:125%;font-family:Sans;-inkscape-font-specification:'Sans Bold';letter-spacing:0px;word-spacing:0px;fill:#515151;fill-opacity:1;stroke:none;stroke-width:1px;stroke-linecap:butt;stroke-linejoin:miter;stroke-opacity:1"
     d="m 18.24403,3.7786581 q 0.313996,0 0.448935,-0.1167749 0.137535,-0.116775 0.137535,-0.3840599 0,-0.2646899 -0.137535,-0.3788699 Q 18.558026,2.7847735 18.24403,2.7847735 l -0.420389,0 0,0.9938846 0.420389,0 z m -0.420389,0.6902698 0,1.4661744 -0.999075,0 0,-3.8743335 1.525859,0 q 0.765525,0 1.12104,0.2569049 0.35811,0.2569048 0.35811,0.8122347 0,0.3840598 -0.186841,0.6305847 -0.184244,0.246525 -0.557924,0.3632999 0.205005,0.04671 0.365894,0.2127899 0.163486,0.163485 0.329566,0.4982398 l 0.542355,1.1002796 -1.06395,0 -0.47229,-0.9627446 q -0.142725,-0.2906399 -0.29064,-0.3970348 -0.14532,-0.106395 -0.38925,-0.106395 l -0.282854,0 z" /></svg>

<svg width="25" height="41" viewBox="0 0 25 41" fill="none" xmlns="http://www.w3.org/2000/svg">
<path d="M22.4016 0.560486H2.59839V7.56316H22.4016V0.560486Z" fill="white" stroke="#515151" stroke-width="1.08274"/>
<path d="M7.47997 2.18275V3.00277C7.26718 2.90762 7.05958 2.83583 6.85717 2.78739C6.65476 2.73895 6.4636 2.71473 6.28368 2.71473C6.04494 2.71473 5.86848 2.7476 5.7543 2.81334C5.64012 2.87908 5.58303 2.98115 5.58303 3.11955C5.58303 3.22335 5.62109 3.30466 5.69721 3.36348C5.77506 3.42057 5.91519 3.46987 6.1176 3.51139L6.54318 3.59702C6.97395 3.68352 7.28016 3.815 7.46181 3.99146C7.64346 4.16792 7.73428 4.41877 7.73428 4.74401C7.73428 5.17132 7.60713 5.48964 7.35282 5.69897C7.10024 5.90657 6.71359 6.01037 6.19286 6.01037C5.9472 6.01037 5.70067 5.98702 5.45328 5.94031C5.20589 5.8936 4.9585 5.8244 4.71111 5.73271V4.88934C4.9585 5.02082 5.19724 5.12029 5.42733 5.18776C5.65915 5.2535 5.88232 5.28637 6.09684 5.28637C6.31482 5.28637 6.48177 5.25004 6.59768 5.17738C6.71359 5.10472 6.77154 5.00092 6.77154 4.86598C6.77154 4.74488 6.73175 4.65146 6.65217 4.58572C6.57432 4.51998 6.41776 4.46116 6.18248 4.40926L5.79582 4.32363C5.4083 4.24059 5.12458 4.10824 4.94466 3.92659C4.76647 3.74494 4.67738 3.50015 4.67738 3.19221C4.67738 2.80642 4.80194 2.50972 5.05106 2.30212C5.30018 2.09452 5.65829 1.99072 6.12539 1.99072C6.33818 1.99072 6.55702 2.00716 6.78192 2.04003C7.00682 2.07117 7.2395 2.11874 7.47997 2.18275V2.18275Z" fill="#515151"/>
<path d="M8.61399 2.06079H10.2722C10.7652 2.06079 11.1432 2.17065 11.4062 2.39036C11.6709 2.60834 11.8032 2.91974 11.8032 3.32456C11.8032 3.73111 11.6709 4.04423 11.4062 4.26394C11.1432 4.48192 10.7652 4.59091 10.2722 4.59091H9.61307V5.93512H8.61399V2.06079V2.06079ZM9.61307 2.7848V3.86691H10.1658C10.3596 3.86691 10.5092 3.8202 10.6147 3.72678C10.7203 3.63163 10.773 3.49756 10.773 3.32456C10.773 3.15156 10.7203 3.01835 10.6147 2.92493C10.5092 2.83151 10.3596 2.7848 10.1658 2.7848H9.61307Z" fill="#515151"/>
<path d="M12.5065 2.06079H13.5056V4.38331C13.5056 4.70336 13.5575 4.93259 13.6613 5.07099C13.7668 5.20766 13.9381 5.27599 14.1751 5.27599C14.4138 5.27599 14.5851 5.20766 14.6889 5.07099C14.7944 4.93259 14.8472 4.70336 14.8472 4.38331V2.06079H15.8462V4.38331C15.8462 4.93172 15.7087 5.34 15.4336 5.60815C15.1586 5.8763 14.739 6.01038 14.1751 6.01038C13.6128 6.01038 13.1942 5.8763 12.9191 5.60815C12.644 5.34 12.5065 4.93172 12.5065 4.38331V2.06079Z" fill="#515151"/>
<path d="M18.244 3.77868C18.4534 3.77868 18.603 3.73976 18.693 3.66191C18.7847 3.58406 18.8305 3.45604 18.8305 3.27785C18.8305 3.10139 18.7847 2.9751 18.693 2.89898C18.603 2.82286 18.4534 2.7848 18.244 2.7848H17.8236V3.77868H18.244ZM17.8236 4.46895V5.93512H16.8246V2.06079H18.3504C18.8608 2.06079 19.2345 2.14643 19.4715 2.3177C19.7102 2.48897 19.8296 2.75971 19.8296 3.12993C19.8296 3.38597 19.7673 3.59617 19.6427 3.76052C19.5199 3.92487 19.3339 4.04597 19.0848 4.12382C19.2215 4.15496 19.3434 4.22589 19.4507 4.33661C19.5597 4.4456 19.6696 4.61167 19.7803 4.83484L20.3226 5.93512H19.2587L18.7864 4.97238C18.6912 4.77862 18.5944 4.64628 18.4957 4.57535C18.3989 4.50442 18.2691 4.46895 18.1065 4.46895H17.8236V4.46895Z" fill="#515151"/>
</svg>
